actions/16/go-down.svg

<svg xmlns="http://www.w3.org/2000/svg" viewBox="0 0 16 16">
  <defs id="defs3051">
    <style type="text/css" id="current-color-scheme">
      .ColorScheme-Text {
        color:#808080;
      }
      </style>
  </defs>
 <path style="fill:currentColor;fill-opacity:1;stroke:none" 
     d="m8 11.5l-6-6.251.719-.749 4.125 4.298 1.156 1.237 1.156-1.237 4.125-4.298.719.749-4.125 4.298z"
     class="ColorScheme-Text"
     />
</svg>

<svg xmlns="http://www.w3.org/2000/svg" version="1.1" viewBox="0 0 16 16">
 <defs>
  <style id="current-color-scheme" type="text/css">
   .ColorScheme-Text { color:#808080; }
  </style>
 </defs>
 <path class="ColorScheme-Text" d="M 8,11.5 2,5.249 2.719,4.5 6.844,8.798 8,10.035 9.156,8.798 13.281,4.5 14,5.249 9.875,9.547 Z" style="color:#808080;fill:currentColor"/>
</svg>
